symbols/web/auto_read_play/materialsymbolsoutlined/auto_read_play_wght200gradN25_48px.svg

<svg xmlns="http://www.w3.org/2000/svg" height="48" width="48"><path d="m20.2 25.9 8.7-5.9-8.7-5.85ZM6.05 40.05V8.8q0-1.15.825-1.95t1.925-.8h30.4q1.1 0 1.925.8t.825 1.95v22.4q0 1.15-.825 1.95t-1.925.8h-27Zm1.5-3.65 3.95-3.95h27.7q.55 0 .9-.35t.35-.9V8.8q0-.55-.35-.9t-.9-.35H8.8q-.55 0-.9.35t-.35.9Zm0-27.6V7.55 36.4Z"/></svg>

<svg xmlns="http://www.w3.org/2000/svg" height="48" width="48"><path d="M20.2 25.9 28.9 20 20.2 14.15ZM6.05 40.05V8.8Q6.05 7.65 6.875 6.85Q7.7 6.05 8.8 6.05H39.2Q40.3 6.05 41.125 6.85Q41.95 7.65 41.95 8.8V31.2Q41.95 32.35 41.125 33.15Q40.3 33.95 39.2 33.95H12.2ZM10.35 32.45H39.2Q39.65 32.45 40.05 32.05Q40.45 31.65 40.45 31.2V8.8Q40.45 8.35 40.05 7.95Q39.65 7.55 39.2 7.55H8.8Q8.35 7.55 7.95 7.95Q7.55 8.35 7.55 8.8V35.2ZM7.55 32.45V8.8Q7.55 8.25 7.55 7.9Q7.55 7.55 7.55 7.55Q7.55 7.55 7.55 7.9Q7.55 8.25 7.55 8.8V31.2Q7.55 31.75 7.55 32.1Q7.55 32.45 7.55 32.45Z"/></svg>
